dist/img/shop.svg

<svg width="16" height="18" viewBox="0 0 16 18" fill="none" xmlns="http://www.w3.org/2000/svg">
<path d="M3.25073 1L1.00073 4.2V15.4C1.00073 15.8243 1.15877 16.2313 1.44007 16.5314C1.72138 16.8314 2.10291 17 2.50073 17H13.0007C13.3986 17 13.7801 16.8314 14.0614 16.5314C14.3427 16.2313 14.5007 15.8243 14.5007 15.4V4.2L12.2507 1H3.25073Z" stroke="#FF7C76" stroke-width="1.5" stroke-linecap="round" stroke-linejoin="round"/>
<path d="M1.00073 4.20001H14.5007" stroke="#FF7C76" stroke-width="1.5" stroke-linecap="round" stroke-linejoin="round"/>
<path d="M10.7496 7.40002C10.7496 8.24872 10.4336 9.06265 9.87095 9.66277C9.30835 10.2629 8.54528 10.6 7.74963 10.6C6.95398 10.6 6.19092 10.2629 5.62831 9.66277C5.0657 9.06265 4.74963 8.24872 4.74963 7.40002" stroke="#FF7C76" stroke-width="1.5" stroke-linecap="round" stroke-linejoin="round"/>
</svg>

<svg width="16" height="18" viewBox="0 0 16 18" fill="none" xmlns="http://www.w3.org/2000/svg"><path d="M3.25 1L1 4.2v11.2c0 .424.159.831.44 1.131.281.3.663.469 1.06.469H13c.399 0 .78-.169 1.061-.469.282-.3.44-.707.44-1.131V4.2L12.25 1h-9zM1 4.2h13.5" stroke="#FF7C76" stroke-width="1.5" stroke-linecap="round" stroke-linejoin="round"/><path d="M10.75 7.4a3.31 3.31 0 0 1-.879 2.263 2.91 2.91 0 0 1-2.121.937 2.908 2.908 0 0 1-2.122-.937A3.311 3.311 0 0 1 4.75 7.4" stroke="#FF7C76" stroke-width="1.5" stroke-linecap="round" stroke-linejoin="round"/></svg>
